X:699
M:C|
L:1/8
K:F
c|Ac f2 afef|dfcA BGGB|Ac f2 afef|dfcf AFFB|Acfg afef|dfcA BGGB|
cAFc AFcA|BdcA BGGB|Acfa Bdgb|afge fFF||

